X: 28526
T: Munster Heart
R: waltz
M: 3/4
K: Aminor
|:AB|c2 dc Bc|A4 ab/c'/|ag fe dc|d2 G2 AB|
c2 BA Bc|d2 G2 AB|c2 BA Bc|A4:|
|:e^g|a2 a^g eg|a2 a2 de|=ga ge de|g2 g2 c>d|
e2 fe dc|d2 ed cB|c2 dc Bc|A4:|

